X: 12
T:Farewell to Ireland
M:C|
L:1/8
R:reel
K:Ador
A,3  D E3  F|GEDB, G,B,DB,|A,G,A,D EDEF|GEDB, EA,A,G,|A,3  D E3  F| GEDB
, G,3  g|ed (3efg a2 ba|1gedB BAAG :|2 gedB BA A2  |
|:a3  b agef|gfga gedg|eaab agef|gedB BAAa|ae^ce|g3  e|dedB GBdB|(3cBA d
A eAef|gedB BA A2 :|
|:eA (3cBA eA (3cBA|d3  B GBdB|eA (3cBA eAef|gedB BAAe|eA (3cBA eA (3cBA
|d3  B GBdB|(3cBA dA eAef|gedB BA A2 :|
|:ae^ce aece|gdBd gdBd|ae^ce aece|gedB BAAa|ae^ce g3  e|dedB GBdB|(3cBA
dA eAef|1gedB BAAa :|2gedB BAA2 :|
